X:1
T: Connie the Soldier
C:
R:Jig
Q:180
K:D
M:6/8
L:1/16
AG|E2A2A2 A4d2|c2A2G2 E4D2|D2G2G2 D2E2E2|D2G2G2 G2E2D2|E2A2A2 A4d2|c2A2G2 E4D2|E2F2G2 A4G2|E2D2D2 D4AG|
E2A2A2 A4d2|c2A2G2 E4D2|D2G2G2 D2E2E2|D2G2G2 G2E2D2|E2A2A2 A4d2|c2A2G2 E4D2|E2F2G2 A4G2|E2D2D2 D4de|
f2d2d2 A2d2d2|f2d2d2 d4e2|f2e2f2 g2e2d2|c2A2A2 A4z2|f2d2d2 A2d2d2|f2e2d2 A4G2|E2F2G2 A4G2|E2D2D2 D4de|
f2d2d2 A2d2d2|f2d2d2 d4e2|f2e2f2 g2e2d2|c2A2A2 A4z2|(3fgaf2 g2f2e2|f2e2d2 A4G2|E2F2G2 A4G2|E2D2D2 D4||
